packages/IcoMoon/src/ImagesIcon/index.svg

<svg version="1.1" xmlns="http://www.w3.org/2000/svg" width="18" height="16" viewBox="0 0 18 16">
<path d="M17 2h-1v-1c0-0.55-0.45-1-1-1h-14c-0.55 0-1 0.45-1 1v12c0 0.55 0.45 1 1 1h1v1c0 0.55 0.45 1 1 1h14c0.55 0 1-0.45 1-1v-12c0-0.55-0.45-1-1-1zM2 3v10h-0.998c-0.001-0.001-0.001-0.001-0.002-0.002v-11.996c0.001-0.001 0.001-0.001 0.002-0.002h13.996c0.001 0.001 0.001 0.001 0.002 0.002v0.998h-12c-0.55 0-1 0.45-1 1v0zM17 14.998c-0.001 0.001-0.001 0.001-0.002 0.002h-13.996c-0.001-0.001-0.001-0.001-0.002-0.002v-11.996c0.001-0.001 0.001-0.001 0.002-0.002h13.996c0.001 0.001 0.001 0.001 0.002 0.002v11.996z"></path>
<path d="M15 5.5c0 0.828-0.672 1.5-1.5 1.5s-1.5-0.672-1.5-1.5 0.672-1.5 1.5-1.5 1.5 0.672 1.5 1.5z"></path>
<path d="M16 14h-12v-2l3.5-6 4 5h1l3.5-3z"></path>
</svg>

<svg xmlns="http://www.w3.org/2000/svg" viewBox="0 0 18 16">
  <path d="M17 2h-1V1c0-.55-.45-1-1-1H1C.45 0 0 .45 0 1v12c0 .55.45 1 1 1h1v1c0 .55.45 1 1 1h14c.55 0 1-.45 1-1V3c0-.55-.45-1-1-1zM2 3v10h-.998L1 12.998V1.002L1.002 1h13.996l.002.002V2H3c-.55 0-1 .45-1 1zm15 11.998l-.002.002H3.002L3 14.998V3.002L3.002 3h13.996l.002.002v11.996z"/>
  <path d="M15 5.5a1.5 1.5 0 11-3.001-.001A1.5 1.5 0 0115 5.5zm1 8.5H4v-2l3.5-6 4 5h1L16 8z"/>
</svg>
